X:1
T:Title
%%score ( 1 2 ) { 3 | 4 }
L:1/8
Q:1/4=87
M:3/4
K:F
V:1 treble nm="Grand Piano, Unnamed-000"
V:2 treble 
V:3 treble nm="Choir Pad, Saved by Grace"
V:4 bass 
V:1
 [FA][FA] [FB] [FA]3 | [EG]C [CG] [CF]3 | [CF][CE] [CF] [FB]3 | [FA][FG]- [FG]/D/ [CG]3 | %4
w: By~George~Coles~Stebbins,~1894 * * *||||
 [FA][FA] [FB] [FA]3 | [EG]C [CG] [CF]3 | [FA][EG] [_EA][Dc] [FB][FA]- | [FA]2 [EG] [CF]3 | %8
w: ||||
 [FA][FA] [Ac] [Ac]3 | [Ad][FA] [Ac] [Bc]3 | [Ac][Ac] [GB][GB] [Ac][Be]- | [Be]2 [Bd] [Ac]3 | %12
w: ||||
 [FA][FA] [Ac] [Ac]3 | [Ad][FA] [Fc] [Ec]3 | [Ec][_Ec] [EF][DF] [DB]A- | [FA-][EA] [CG] [CF]3- | %16
w: ||||
 [CF]4 z2 |] %17
w: |
V:2
 x6 | x6 | x6 | x6 | x6 | x6 | x6 | x6 | x6 | x6 | x6 | x6 | x6 | x6 | z2 z2 z C | x6 | x6 |] %17
V:3
 CC D C3 | B,[K:bass]B, B, A,3 | A,B, A, D3 | C=B,- B,/B,/ _B,3 | CC D C3 | B,[K:bass]B, B, A,3 | %6
 CB,[K:treble] CD ^C=C- | C2 B, A,3 | CC F F3 | FC F E3 | CC CC CC- | C2 E F3 | CC F F3 | %13
 FC[K:bass] A, B,3 | B,A, CB, F,F, | A,C B, A,3- | A,4 z2 |] %17
V:4
 F,F, F, F,3 | C,E, C, F,3 | F,G, F, B,,3 | F,G,- G,/F,/ E,3 | F,F, F, F,3 | C,E, C, F,3 | %6
 F,C, F,B,, B,,C,- | C,2 C, [F,,F,]3 | F,F, F,F, C,F, | F,F, F,G, C,G, | F,C, C,C, C,C,- | %11
 C,2 C, F,3 | F,F, F,F, C,F, | F,F, F,G, C,G, | G,F, A,,B,, B,,C,- | C,2 C, F,3- | F,4 z2 |] %17

